X:1
T:Flascherl-Rheinlaender
C:nach Anton Gaisberger
A:Gilgenberg
%%textfont Helvetica-Narrow 10pt
%%begintext align
B:"3. Spielheft fuer Okarina", compilation V. Derschmidt, publisher Oberoesterreichisches Volksliedwerk, Linz 1994
S:Oberoesterreichisches Volksliedarchiv M I/G3 - 1018
N:in the book in C(1.part), G(2.part) & F(3.part)
%%endtext 
F:http://simonwascher.info
Z:abc transcription Simon Wascher
M:2/4
L:1/16
K:G
BBBB BAGD | E2D2 DEFG | BBBB BAGD | F2E2 E4 |
cccc cBAG | F6FA | E6EF | D2d2 c2c2 |
BBBB BAGD | E2D2 DEFG | BBBB BAGD | F2E2 E4 |
cccB A2A2 | BBBA G2G2 | AAAG FDEF | G2G2 G4 :|
K:C
|:\
GGGF E2E2 | GGGF E2E2 | G3G A3E | G2F2 F4 |
FFFE D2D2 | FFFE D2D2 | B3A B3A | A2G2 A2G2 |
G4 G3F | E6 E2 | G3A A3G | G2FE F4 |
F4 F3E | D6 D2 | G3G A3B | c2c2c4 :|
%%wordsfont Times-Italic 11pt
W:aus Simon Waschers TradArchiv
